icons/svg/seamark_big/landmark_minaret.svg

<?xml version="1.0" encoding="UTF-8" standalone="no"?>
<svg
   xmlns:dc="http://purl.org/dc/elements/1.1/"
   xmlns:cc="http://creativecommons.org/ns#"
   xmlns:rdf="http://www.w3.org/1999/02/22-rdf-syntax-ns#"
   xmlns:svg="http://www.w3.org/2000/svg"
   xmlns="http://www.w3.org/2000/svg"
   xmlns:sodipodi="http://sodipodi.sourceforge.net/DTD/sodipodi-0.dtd"
   xmlns:inkscape="http://www.inkscape.org/namespaces/inkscape"
   width="1060"
   height="1060"
   id="svg2"
   version="1.1"
   inkscape:version="0.48.4 r9939"
   sodipodi:docname="landmark_statue.svg">
  <defs
     id="defs13">
    <inkscape:path-effect
       effect="gears"
       id="path-effect3774"
       is_visible="true"
       teeth="6"
       phi="-1.2" />
    <inkscape:path-effect
       effect="bend_path"
       id="path-effect3772"
       is_visible="false"
       bendpath="m 95.790098,316.51174 c 144.429032,-206.42506 223.313032,-11.7428 339.548092,0"
       prop_scale="1.19"
       scale_y_rel="false"
       vertical="false"
       bendpath-nodetypes="cc" />
  </defs>
  <sodipodi:namedview
     pagecolor="#ffffff"
     bordercolor="#666666"
     borderopacity="1"
     objecttolerance="10"
     gridtolerance="10"
     guidetolerance="10"
     inkscape:pageopacity="0"
     inkscape:pageshadow="2"
     inkscape:window-width="1920"
     inkscape:window-height="1004"
     id="namedview11"
     showgrid="false"
     inkscape:zoom="0.8137931"
     inkscape:cx="533.1296"
     inkscape:cy="580.15391"
     inkscape:window-x="1680"
     inkscape:window-y="0"
     inkscape:window-maximized="1"
     inkscape:current-layer="svg2"
     inkscape:snap-object-midpoints="true"
     inkscape:snap-center="true" />
  <metadata
     id="metadata2975">image/svg+xmlen<rdf:RDF>
  <cc:Work
     rdf:about="">
    <dc:format>image/svg+xml</dc:format>
    <dc:type
       rdf:resource="http://purl.org/dc/dcmitype/StillImage" />
    <dc:title></dc:title>
  </cc:Work>
</rdf:RDF>
</metadata>
  <path
     style="font-size:medium;font-style:normal;font-variant:normal;font-weight:normal;font-stretch:normal;text-indent:0;text-align:start;text-decoration:none;line-height:normal;letter-spacing:normal;word-spacing:normal;text-transform:none;direction:ltr;block-progression:tb;writing-mode:lr-tb;text-anchor:start;baseline-shift:baseline;opacity:0.372;color:#000000;fill:#e4e4e4;fill-opacity:1;fill-rule:nonzero;stroke:#a35151;stroke-width:0;stroke-linecap:round;stroke-linejoin:miter;stroke-miterlimit:4;stroke-opacity:1;stroke-dashoffset:0;marker:none;visibility:visible;display:inline;overflow:visible;enable-background:accumulate;font-family:Sans;-inkscape-font-specification:Sans"
     d="m 509.46875,195.8125 c -16.31078,0 -31.70182,11.95283 -33.875,14.125 -3.89287,3.89106 -7.26375,9.15393 -7.96875,10.34375 -2.42682,4.09572 -4.16472,8.14025 -5.28125,11.03125 -2.34532,6.07272 -4.15606,12.23161 -6.09375,19.21875 -3.91312,14.11034 -8.08396,31.90528 -12.0625,51.34375 -5.76577,28.17058 -11.01701,58.63482 -13.625,85.53125 -12.94704,12.20035 -21.03125,29.33975 -21.03125,48.375 0,18.17999 7.31133,34.72345 19.25,46.8125 l 0,203.78125 -10.375,0 c -9.77644,4.7e-4 -19.4925,4.02527 -26.40549,10.93826 -6.91299,6.91299 -10.93779,16.62905 -10.93826,26.40549 l 0,23.0625 c 4.7e-4,9.77644 4.02527,19.4925 10.93826,26.40549 6.91299,6.91299 16.62905,10.93779 26.40549,10.93826 l 21.625,0 c 15.46189,21.85836 40.88787,36.125 69.40625,36.125 28.53032,0 53.96778,-14.25079 69.4375,-36.125 l 21.625,0 c 9.77644,-4.7e-4 19.4925,-4.02527 26.40549,-10.93826 6.91299,-6.91299 10.93779,-16.62905 10.93826,-26.40549 l 0,-23.0625 c -4.7e-4,-9.77644 -4.02527,-19.4925 -10.93826,-26.40549 C 619.9925,690.40027 610.27644,686.37547 600.5,686.375 l -10.375,0 0,-203.75 c 11.94941,-12.07647 19.28125,-28.62384 19.28125,-46.84375 0,-19.07582 -8.10606,-36.21937 -21.0625,-48.40625 -2.60221,-27.01043 -7.8477,-57.51427 -13.625,-85.6875 -3.97913,-19.40438 -8.14244,-37.19013 -12.0625,-51.28125 -1.97233,-7.08978 -3.87601,-13.27142 -6.15625,-19.15625 -0.96935,-2.50169 -2.59652,-6.59835 -5.25,-11.0625 -0.84292,-1.41812 -4.27707,-6.57109 -8,-10.28125 -1.94761,-1.94093 -17.43383,-14.09375 -33.78125,-14.09375 z"
     id="path4034"
     inkscape:connector-curvature="0"
     sodipodi:nodetypes="sssssscscccsccsccsccsccscccscssssss" />
  <path
     sodipodi:type="arc"
     style="color:#000000;fill:none;stroke:#000000;stroke-width:30.33652306;stroke-linecap:butt;stroke-linejoin:miter;stroke-miterlimit:4;stroke-opacity:1;stroke-dasharray:none;stroke-dashoffset:0;marker:none;visibility:visible;display:inline;overflow:visible;enable-background:accumulate"
     id="path2985"
     sodipodi:cx="510.26483"
     sodipodi:cy="737.74365"
     sodipodi:rx="69.120766"
     sodipodi:ry="69.120766"
     d="m 579.3856,737.74365 a 69.120766,69.120766 0 1 1 -138.24153,0 69.120766,69.120766 0 1 1 138.24153,0 z"
     transform="matrix(0.56558888,0,0,0.56558888,221.05031,318.17685)" />
  <path
     style="font-size:medium;font-style:normal;font-variant:normal;font-weight:normal;font-stretch:normal;text-indent:0;text-align:start;text-decoration:none;line-height:normal;letter-spacing:normal;word-spacing:normal;text-transform:none;direction:ltr;block-progression:tb;writing-mode:lr-tb;text-anchor:start;baseline-shift:baseline;color:#000000;fill:#000000;fill-opacity:1;stroke:none;stroke-width:30.00000191;marker:none;visibility:visible;display:inline;overflow:visible;enable-background:accumulate;font-family:Sans;-inkscape-font-specification:Sans"
     d="m 418.58715,723.91311 0,23.04878 57.06673,0 0,-23.04878 z m 125.04022,0 0,23.04878 57.06673,0 0,-23.04878 z"
     id="path3754"
     inkscape:connector-curvature="0"
     sodipodi:nodetypes="cccccccccc" />
  <path
     transform="matrix(9.6300523,0,0,8.5951889,90.743149,302.50227)"
     style="fill:none;stroke:#000000;stroke-width:2.11697936;stroke-linecap:round;stroke-linejoin:round;stroke-miterlimit:10"
     d="m 47,18 0,29.84179 m -7,0 L 40,18"
     id="polyline3"
     inkscape:connector-curvature="0"
     sodipodi:nodetypes="cccc" />
  <line
     style="fill:none;stroke:#000000;stroke-width:19.26010513;stroke-linecap:round;stroke-linejoin:round;stroke-miterlimit:10"
     stroke-miterlimit="10"
     x1="475.94531"
     y1="416.45822"
     x2="543.35565"
     y2="416.45822"
     id="line5" />
  <path
     style="fill:none;stroke:#000000;stroke-width:19.26010513;stroke-linecap:round;stroke-linejoin:round;stroke-miterlimit:10"
     inkscape:connector-curvature="0"
     stroke-miterlimit="10"
     d="m 475.94524,416.45831 c 0,-48.58397 27.35898,-173.46648 33.70518,-173.46648 6.33657,0 33.70518,124.36212 33.70518,173.46648"
     id="path7" />
  <circle
     d="m 49,16 c 0,1.104569 -0.895431,2 -2,2 -1.104569,0 -2,-0.895431 -2,-2 0,-1.104569 0.895431,-2 2,-2 1.104569,0 2,0.895431 2,2 z"
     transform="matrix(9.6300523,0,0,9.7548933,90.743149,279.88979)"
     style="fill:none;stroke:#000000;stroke-width:1.98716116;stroke-linecap:round;stroke-linejoin:round;stroke-miterlimit:10"
     sodipodi:ry="2"
     sodipodi:rx="2"
     sodipodi:cy="16"
     sodipodi:cx="47"
     stroke-miterlimit="10"
     cx="47"
     cy="16"
     r="2"
     id="circle13" />
  <circle
     d="m 42,16 c 0,1.104569 -0.895431,2 -2,2 -1.104569,0 -2,-0.895431 -2,-2 0,-1.104569 0.895431,-2 2,-2 1.104569,0 2,0.895431 2,2 z"
     transform="matrix(9.6300523,0,0,9.7548933,90.743149,279.88979)"
     style="fill:none;stroke:#000000;stroke-width:1.98716116;stroke-linecap:round;stroke-linejoin:round;stroke-miterlimit:10"
     sodipodi:ry="2"
     sodipodi:rx="2"
     sodipodi:cy="16"
     sodipodi:cx="40"
     stroke-miterlimit="10"
     cx="40"
     cy="16"
     r="2"
     id="circle15" />
</svg>

<svg width="1060" height="1060" viewBox="0 0 1060 1060" fill="none" xmlns="http://www.w3.org/2000/svg">
<path opacity="0.372" d="M509.469 195.812C493.158 195.812 477.767 207.765 475.594 209.938C471.701 213.829 468.33 219.091 467.625 220.281C465.198 224.377 463.46 228.421 462.344 231.312C459.998 237.385 458.188 243.544 456.25 250.531C452.337 264.642 448.166 282.437 444.188 301.875C438.422 330.046 433.17 360.51 430.562 387.406C417.615 399.607 409.531 416.746 409.531 435.781C409.531 453.961 416.843 470.505 428.781 482.594V686.375H418.406C408.63 686.375 398.914 690.4 392.001 697.313C385.088 704.226 381.063 713.942 381.062 723.719V746.781C381.063 756.558 385.088 766.274 392.001 773.187C398.914 780.1 408.63 784.125 418.406 784.125H440.031C455.493 805.983 480.919 820.25 509.438 820.25C537.968 820.25 563.405 805.999 578.875 784.125H600.5C610.276 784.125 619.993 780.1 626.906 773.187C633.819 766.274 637.843 756.558 637.844 746.781V723.719C637.843 713.942 633.819 704.226 626.906 697.313C619.993 690.4 610.276 686.375 600.5 686.375H590.125V482.625C602.074 470.549 609.406 454.001 609.406 435.781C609.406 416.705 601.3 399.562 588.344 387.375C585.742 360.365 580.496 329.861 574.719 301.688C570.74 282.283 566.576 264.497 562.656 250.406C560.684 243.316 558.78 237.135 556.5 231.25C555.531 228.748 553.903 224.652 551.25 220.188C550.407 218.769 546.973 213.616 543.25 209.906C541.302 207.965 525.816 195.812 509.469 195.812Z" fill="#E4E4E4"/>
<path d="M548.745 735.437C548.745 740.571 547.735 745.655 545.771 750.399C543.806 755.143 540.927 759.453 537.297 763.084C533.666 766.715 529.356 769.596 524.613 771.561C519.869 773.526 514.785 774.537 509.651 774.537C504.516 774.537 499.432 773.526 494.688 771.561C489.945 769.596 485.635 766.715 482.005 763.084C478.374 759.453 475.495 755.143 473.531 750.399C471.566 745.655 470.556 740.571 470.557 735.437C470.556 730.302 471.566 725.218 473.531 720.474C475.495 715.73 478.374 711.42 482.005 707.789C485.635 704.158 489.945 701.277 494.688 699.312C499.432 697.347 504.516 696.336 509.651 696.336C514.785 696.336 519.869 697.347 524.613 699.312C529.356 701.277 533.666 704.158 537.297 707.789C540.927 711.42 543.806 715.73 545.771 720.474C547.735 725.218 548.745 730.302 548.745 735.437Z" stroke="black" stroke-width="17.158"/>
<path d="M418.587 723.913V746.962H475.654V723.913H418.587ZM543.627 723.913V746.962H600.694V723.913H543.627Z" fill="black"/>
<path d="M475.945 713.712V457.216M543.356 457.216V713.712V457.216Z" stroke="black" stroke-width="19.2601" stroke-miterlimit="10" stroke-linecap="round" stroke-linejoin="round"/>
<path d="M475.945 416.458H543.356" stroke="black" stroke-width="19.2601" stroke-miterlimit="10" stroke-linecap="round" stroke-linejoin="round"/>
<path d="M475.945 416.458C475.945 367.874 503.304 242.992 509.65 242.992C515.987 242.992 543.356 367.354 543.356 416.458" stroke="black" stroke-width="19.2601" stroke-miterlimit="10" stroke-linecap="round" stroke-linejoin="round"/>
<path d="M543.356 455.478C553.993 455.478 562.616 446.743 562.616 435.968C562.616 425.193 553.993 416.458 543.356 416.458C532.719 416.458 524.096 425.193 524.096 435.968C524.096 446.743 532.719 455.478 543.356 455.478Z" stroke="black" stroke-width="19.2601" stroke-miterlimit="10" stroke-linecap="round" stroke-linejoin="round"/>
<path d="M475.945 455.478C486.582 455.478 495.205 446.743 495.205 435.968C495.205 425.193 486.582 416.458 475.945 416.458C465.308 416.458 456.685 425.193 456.685 435.968C456.685 446.743 465.308 455.478 475.945 455.478Z" stroke="black" stroke-width="19.2601" stroke-miterlimit="10" stroke-linecap="round" stroke-linejoin="round"/>
</svg>
